packages/ffe-icons/icons/filled/sm/h_mobiledata.svg

<svg xmlns="http://www.w3.org/2000/svg" height="20" viewBox="0 -960 960 960" width="20"><path d="M349.999-454.001v140.002q0 10.749-7.418 18.374Q335.163-288 324.197-288q-10.966 0-18.581-7.475t-7.615-18.524v-332.002q0-11.049 7.418-18.524Q312.837-672 323.803-672q10.966 0 18.581 7.475t7.615 18.524v140.002h260.002v-140.002q0-10.749 7.418-18.374Q624.837-672 635.803-672q10.966 0 18.581 7.475t7.615 18.524v332.002q0 11.049-7.418 18.524Q647.163-288 636.197-288q-10.966 0-18.581-7.475t-7.615-18.524v-140.002H349.999Z"/></svg>

<svg xmlns="http://www.w3.org/2000/svg" height="20" viewBox="0 -960 960 960" width="20"><path d="M350-454v140q0 10.75-7.42 18.38-7.42 7.62-18.38 7.62-10.97 0-18.58-7.47Q298-302.95 298-314v-332q0-11.05 7.42-18.53 7.42-7.47 18.38-7.47 10.97 0 18.58 7.47Q350-657.05 350-646v140h260v-140q0-10.75 7.42-18.38 7.42-7.62 18.38-7.62 10.97 0 18.58 7.47Q662-657.05 662-646v332q0 11.05-7.42 18.53-7.42 7.47-18.38 7.47-10.97 0-18.58-7.47Q610-302.95 610-314v-140H350Z"/></svg>
